src/assets/images/binland/isologo-primary.svg

<svg width="196" height="30" viewBox="0 0 196 30" fill="none" xmlns="http://www.w3.org/2000/svg">
<g clip-path="url(#clip0_256_642)">
<path d="M50.0098 0.751953C57.8667 0.751953 60.8743 3.92852 60.8743 10.7801C60.8743 12.1994 60.4561 14.9578 58.7453 16.8376C60.4561 17.6317 61.7107 19.7227 61.7107 22.3121C61.7107 27.4951 59.4128 30.0001 51.56 30.0001H39.9858V0.751953H50.014H50.0098ZM51.0151 24.0651C53.0216 24.0651 54.0227 23.8539 54.0227 21.8939C54.0227 19.9339 53.1019 19.6382 51.0954 19.6382H47.1247V24.0693H51.0109L51.0151 24.0651ZM50.6772 13.6188C52.6837 13.6188 53.6848 13.3695 53.6848 10.7759C53.6848 8.18225 52.6837 7.93303 50.6772 7.93303H47.15V13.6145H50.6772V13.6188Z" fill="#F83D48"/>
<path d="M71.5701 0.751953V30.0001H64.4692V0.751953H71.5701Z" fill="#F83D48"/>
<path d="M97.9753 0.751953V30.0001H89.5945C89.6241 29.5438 89.641 29.0876 89.641 28.623C89.641 22.7472 87.0474 17.4754 82.9415 13.8933L82.933 13.8722V13.8849C82.933 13.8849 82.933 13.8849 82.9288 13.8806C81.8136 16.3391 81.1969 19.0679 81.1969 21.9404C81.1969 24.8128 81.8178 27.5458 82.933 30.0001H75.752V0.751953H84.1918L90.7942 16.7531V0.751953H97.9795H97.9753Z" fill="#F83D48"/>
<path d="M109.343 0.751953V22.8105H121.166V29.9958H102.157V0.751953H109.343Z" fill="#F83D48"/>
<path d="M144.023 30H136.837V23.8581H130.738V30H123.552V10.8645C123.552 5.60124 124.389 0 133.787 0C143.186 0 144.023 5.59701 144.023 10.8645V30ZM136.837 10.8645C136.837 8.85807 136.546 7.85694 133.787 7.85694C131.029 7.85694 130.738 8.85807 130.738 10.8645V16.6305H136.837V10.8645Z" fill="#F83D48"/>
<path d="M156.429 0.751953L163.032 16.7531V0.751953H170.217V30.0001H161.777L155.175 13.8722V30.0001H147.989V0.751953H156.429Z" fill="#F83D48"/>
<path d="M184.968 0.751953C192.825 0.751953 195.414 3.92852 195.414 10.7801V19.9297C195.414 26.7812 192.825 30.0001 184.968 30.0001H174.395V0.751953H184.968ZM185.094 22.8105C187.101 22.8105 188.102 22.4768 188.102 19.9677V10.7759C188.102 8.18648 187.101 7.93303 185.094 7.93303H181.584V22.8063H185.094V22.8105Z" fill="#F83D48"/>
<path d="M31.9136 17.6231C30.904 22.2401 27.9217 26.1179 23.8919 28.3229C22.4683 29.1044 20.9096 29.6789 19.2622 29.9999C20.5125 29.0537 21.6911 28.023 22.8063 26.912C24.1031 26.8909 25.3239 26.4431 26.3208 25.6363C26.4052 25.6701 26.4982 25.687 26.5953 25.687C27.0346 25.687 27.3895 25.3322 27.3895 24.8929C27.3895 24.4536 27.0346 24.0987 26.5953 24.0987C26.156 24.0987 25.8012 24.4536 25.8012 24.8929C25.8012 25.0703 25.8603 25.2393 25.9617 25.3702C25.176 25.9785 24.2467 26.3502 23.254 26.4516C24.7578 24.8971 26.1433 23.1905 27.4317 21.3319C27.5458 21.3953 27.6767 21.4333 27.8203 21.4333C28.2597 21.4333 28.6145 21.0785 28.6145 20.6391C28.6145 20.1998 28.2597 19.845 27.8203 19.845C27.381 19.845 27.0262 20.1998 27.0262 20.6391C27.0262 20.8715 27.1234 21.0785 27.2796 21.2179C25.7463 22.8104 23.9933 24.3226 22.1642 25.6743C22.1388 25.4631 22.1262 25.2477 22.1262 25.0323C22.1262 24.0396 22.3923 23.0976 22.8992 22.2654C23.0132 22.3288 23.1442 22.3668 23.2794 22.3668C23.7187 22.3668 24.0735 22.012 24.0735 21.5727C24.0735 21.1334 23.7187 20.7785 23.2794 20.7785C22.8401 20.7785 22.4852 21.1334 22.4852 21.5727C22.4852 21.7121 22.5232 21.8388 22.5824 21.9529C21.9952 22.8695 21.6911 23.9255 21.6911 25.0323C21.6911 25.3449 21.7164 25.6575 21.7671 25.9616C20.2253 27.0768 18.637 28.0737 17.0825 28.9185C17.0825 28.8932 17.0825 28.8636 17.0825 28.8382C17.1036 27.8836 17.243 26.9585 17.4796 26.0714C17.5936 25.6406 17.7288 25.2224 17.8893 24.8126C17.9696 24.6099 18.0541 24.4029 18.147 24.2043C19.5114 21.2094 22.0839 18.8819 25.2394 17.8428C26.4137 17.4541 27.664 17.2429 28.9693 17.2429C29.9831 17.2429 30.9673 17.3696 31.9093 17.6104L31.9136 17.6231Z" fill="#F83D48"/>
<path d="M28.6822 5.14491C28.6822 8.95933 27.8331 12.5794 26.3124 15.8194C23.8624 16.3051 21.649 17.4499 19.8664 19.0635C19.9762 17.019 20.2761 15.0421 20.7661 13.1455C20.8084 13.1455 20.8548 13.1455 20.9013 13.1455C22.6036 13.1455 24.1961 12.402 25.2817 11.1263C25.286 11.1263 25.2902 11.1263 25.2944 11.1263C25.7337 11.1263 26.0886 10.7715 26.0886 10.3322C26.0886 9.89287 25.7337 9.53804 25.2944 9.53804C24.8551 9.53804 24.5003 9.89287 24.5003 10.3322C24.5003 10.5983 24.6312 10.8349 24.8298 10.9785C23.8286 12.0768 22.4093 12.7146 20.8928 12.7146H20.8759C21.6278 9.94356 22.7895 7.34992 24.344 4.98017C24.4538 5.03931 24.5805 5.0731 24.7157 5.0731C25.155 5.0731 25.5098 4.71827 25.5098 4.27896C25.5098 3.83965 25.155 3.48482 24.7157 3.48482C24.2764 3.48482 23.9216 3.83965 23.9216 4.27896C23.9216 4.50284 24.0145 4.7056 24.1623 4.84922C22.2108 6.93173 20.4028 9.70701 19.068 12.6259C18.7512 11.9331 18.5864 11.1812 18.5864 10.4082C18.5864 9.7577 18.7005 9.1283 18.9244 8.53269C18.9328 8.53269 18.9371 8.53269 18.9455 8.53269C19.3848 8.53269 19.7396 8.17786 19.7396 7.73855C19.7396 7.29923 19.3848 6.9444 18.9455 6.9444C18.5062 6.9444 18.1514 7.29923 18.1514 7.73855C18.1514 8.01312 18.295 8.26234 18.5104 8.40174C18.2739 9.03959 18.1514 9.71123 18.1514 10.404C18.1514 11.3671 18.3879 12.2964 18.8357 13.1328C18.3752 14.1888 17.9782 15.2618 17.6656 16.3178C17.0657 13.8594 16.0562 11.5614 14.7129 9.50425C16.5251 5.0562 20.5422 1.74869 25.4127 0.937646C26.1688 0.810921 26.9461 0.747559 27.736 0.747559C27.9218 0.747559 28.1077 0.751783 28.2893 0.760231C28.4752 1.8036 28.5935 2.86809 28.6442 3.94947C28.6653 4.34654 28.6737 4.74362 28.6737 5.14491H28.6822Z" fill="#F83D48"/>
<path d="M16.432 21.5769C16.432 22.0754 16.4151 22.5738 16.3771 23.0638C16.2715 24.4874 16.0222 25.8687 15.6421 27.1951C15.5238 27.6133 15.3886 28.0272 15.2408 28.4327C13.4202 26.6544 11.8657 24.631 10.552 22.4851C11.2574 21.4291 11.6038 20.1534 11.6038 18.6242C11.6038 18.5102 11.6038 18.3961 11.5953 18.2821C11.8952 18.168 12.1107 17.8808 12.1107 17.5429C12.1107 17.1035 11.7558 16.7487 11.3165 16.7487C10.8772 16.7487 10.5224 17.1035 10.5224 17.5429C10.5224 17.9315 10.797 18.2483 11.1645 18.3201C11.1687 18.4215 11.1729 18.5229 11.1729 18.6242C11.1729 19.9802 10.8857 21.1207 10.3027 22.0754C9.63109 20.9518 9.02281 19.7986 8.47367 18.6285C9.69023 17.564 10.9195 15.925 11.0208 13.5975C11.2405 13.4581 11.3883 13.2089 11.3883 12.9301C11.3883 12.4908 11.0335 12.1359 10.5942 12.1359C10.1549 12.1359 9.80006 12.4908 9.80006 12.9301C9.80006 13.3694 10.1464 13.7158 10.5773 13.72C10.4464 15.7645 9.37342 17.2345 8.28358 18.2187C6.99944 15.4223 6.04478 12.5626 5.34779 9.88445C5.71107 9.81264 5.98141 9.4916 5.98141 9.1072C5.98141 8.66789 5.62658 8.31306 5.18727 8.31306C4.74796 8.31306 4.39313 8.66789 4.39313 9.1072C4.39313 9.54652 4.74796 9.90135 5.18727 9.90135C5.20839 9.90135 5.23374 9.90135 5.25486 9.89712C5.53365 12.4189 6.0321 14.8352 6.6953 17.1204C5.60546 16.7065 4.63391 16.0053 3.8989 15.0971C3.98339 14.9703 4.02985 14.8225 4.02985 14.6578C4.02985 14.2184 3.67502 13.8636 3.23571 13.8636C2.7964 13.8636 2.44157 14.2184 2.44157 14.6578C2.44157 15.0971 2.7964 15.4519 3.23571 15.4519C3.35399 15.4519 3.46381 15.4265 3.56519 15.3801C4.41425 16.4361 5.54633 17.2134 6.84314 17.6358C7.32892 19.2325 7.89074 20.7659 8.52014 22.219C7.21065 21.8642 6.02788 21.0996 5.1577 20.0478C5.34779 19.9042 5.47029 19.6761 5.47029 19.4184C5.47029 18.9791 5.11546 18.6242 4.67615 18.6242C4.23684 18.6242 3.88201 18.9791 3.88201 19.4184C3.88201 19.8577 4.23684 20.2125 4.67615 20.2125C4.69304 20.2125 4.71417 20.2125 4.73106 20.2125C5.73641 21.4798 7.16418 22.3795 8.73979 22.7217C9.95635 25.4505 11.3968 27.8963 12.9259 29.983C12.1107 29.8183 11.3165 29.5902 10.552 29.3071C4.39313 27.0303 0 21.1038 0 14.1551C0 9.8591 1.67699 5.95598 4.41003 3.06665C8.49479 4.88726 11.8657 8.01737 13.9904 11.9247C15.5491 14.7929 16.432 18.0835 16.432 21.5769Z" fill="#F83D48"/>
</g>
<defs>
<clipPath id="clip0_256_642">
<rect width="195.414" height="30" fill="white"/>
</clipPath>
</defs>
</svg>

<svg xmlns="http://www.w3.org/2000/svg" fill="none" viewBox="0 0 196 30"><g fill="#F83D48" clip-path="url(#a)"><path d="M50.01.752c7.857 0 10.864 3.177 10.864 10.028 0 1.42-.418 4.178-2.129 6.058 1.711.794 2.966 2.885 2.966 5.474C61.71 27.495 59.413 30 51.56 30H39.986V.752h10.028-.004Zm1.005 23.313c2.007 0 3.008-.211 3.008-2.171 0-1.96-.921-2.256-2.928-2.256h-3.97v4.431h3.886l.004-.004Zm-.338-10.446c2.007 0 3.008-.25 3.008-2.843 0-2.594-1.001-2.843-3.008-2.843H47.15v5.681h3.527v.005ZM71.57.752V30h-7.1V.752h7.1ZM97.975.752V30h-8.38c.03-.456.046-.912.046-1.377a19.495 19.495 0 0 0-6.7-14.73l-.008-.02v.012l-.004-.004a19.458 19.458 0 0 0-1.732 8.06c0 2.872.62 5.605 1.736 8.06h-7.181V.751h8.44l6.602 16.001V.752h7.186-.005ZM109.343.752v22.059h11.823v7.185h-19.009V.752h7.186ZM144.023 30h-7.186v-6.142h-6.099V30h-7.186V10.864c0-5.263.837-10.864 10.235-10.864 9.399 0 10.236 5.597 10.236 10.864V30Zm-7.186-19.136c0-2.006-.291-3.007-3.05-3.007-2.758 0-3.049 1.001-3.049 3.007v5.767h6.099v-5.767ZM156.429.752l6.603 16.001V.752h7.185V30h-8.44l-6.602-16.128V30h-7.186V.752h8.44ZM184.968.752c7.857 0 10.446 3.177 10.446 10.028v9.15c0 6.851-2.589 10.07-10.446 10.07h-10.573V.752h10.573Zm.126 22.059c2.007 0 3.008-.334 3.008-2.843v-9.192c0-2.59-1.001-2.843-3.008-2.843h-3.51v14.873h3.51v.005ZM31.914 17.623A16.154 16.154 0 0 1 19.262 30a34.618 34.618 0 0 0 3.544-3.088 5.7 5.7 0 0 0 3.515-1.276.793.793 0 1 0 .275-1.538.793.793 0 0 0-.634 1.272 5.278 5.278 0 0 1-2.708 1.082 40.588 40.588 0 0 0 4.178-5.12.794.794 0 1 0-.152-.114c-1.534 1.592-3.287 3.105-5.116 4.456a5.39 5.39 0 0 1-.038-.642c0-.992.266-1.934.773-2.767a.786.786 0 0 0 1.174-.692.793.793 0 1 0-1.49.38 5.668 5.668 0 0 0-.892 3.08c0 .312.025.624.076.929a43.479 43.479 0 0 1-4.684 2.957v-.08c.02-.955.16-1.88.397-2.768a11.527 11.527 0 0 1 .667-1.867 11.907 11.907 0 0 1 7.092-6.361c1.175-.389 2.425-.6 3.73-.6 1.014 0 1.998.127 2.94.367l.005.013ZM28.682 5.145c0 3.814-.849 7.434-2.37 10.674a13.52 13.52 0 0 0-6.446 3.245c.11-2.045.41-4.022.9-5.918h.135a5.74 5.74 0 0 0 4.38-2.02h.013a.793.793 0 1 0 0-1.588.793.793 0 0 0-.794.794c0 .266.131.503.33.646a5.316 5.316 0 0 1-3.937 1.737h-.017a26.881 26.881 0 0 1 3.468-7.735.793.793 0 1 0 .372-1.495.793.793 0 0 0-.554 1.364c-1.951 2.083-3.76 4.858-5.094 7.777a5.317 5.317 0 0 1-.482-2.218c0-.65.115-1.28.338-1.875h.021a.793.793 0 1 0 0-1.589.793.793 0 0 0-.435 1.458 5.759 5.759 0 0 0 .325 4.731 27.667 27.667 0 0 0-1.17 3.185 21.996 21.996 0 0 0-2.952-6.814c1.812-4.448 5.83-7.755 10.7-8.566A14.058 14.058 0 0 1 28.289.76c.186 1.044.304 2.108.355 3.19.021.397.03.794.03 1.195h.008ZM16.432 21.577a20.483 20.483 0 0 1-.79 5.618 17.65 17.65 0 0 1-.401 1.238c-1.82-1.779-3.375-3.802-4.689-5.948.705-1.056 1.052-2.332 1.052-3.86 0-.115 0-.229-.009-.343a.794.794 0 0 0 .516-.74.793.793 0 1 0-1.589 0 .79.79 0 0 0 .643.778c.004.102.008.203.008.304 0 1.356-.287 2.497-.87 3.451a39.073 39.073 0 0 1-1.83-3.447c1.217-1.064 2.446-2.703 2.548-5.03a.794.794 0 1 0-1.22-.668c0 .44.345.786.776.79-.13 2.044-1.204 3.514-2.293 4.499-1.285-2.797-2.24-5.656-2.936-8.335a.793.793 0 1 0-.955-.777c0 .44.355.794.794.794.021 0 .047 0 .068-.004a42.794 42.794 0 0 0 1.44 7.223A6.64 6.64 0 0 1 3.9 15.097a.793.793 0 1 0-1.457-.44.793.793 0 0 0 1.123.723 6.949 6.949 0 0 0 3.278 2.256 43.125 43.125 0 0 0 1.677 4.583 6.636 6.636 0 0 1-3.362-2.171.793.793 0 1 0-.482.165h.055a7.064 7.064 0 0 0 4.009 2.509 39.652 39.652 0 0 0 4.186 7.261 15.919 15.919 0 0 1-2.374-.676C4.393 27.03 0 21.104 0 14.155 0 9.86 1.677 5.956 4.41 3.067a20.36 20.36 0 0 1 9.58 8.858 20.159 20.159 0 0 1 2.442 9.652Z"/></g><defs><clipPath id="a"><path fill="#fff" d="M0 0h195.414v30H0z"/></clipPath></defs></svg>
